Icons/Forge.svg

<svg xmlns="http://www.w3.org/2000/svg" xml:space="preserve" fill-rule="evenodd" stroke-linecap="round" stroke-linejoin="round" stroke-miterlimit="1.5" clip-rule="evenodd" viewBox="0 0 24 24"><path fill="none" d="M0 0h24v24H0z"/><path fill="none" stroke="#000" stroke-width="2" d="M2 7.5h8v-2h12v2s-7 3.448-7 6 3.108 3.108 3.108 3.108L19 20.5l-14-.055 1.054-4.054S9.751 16.5 10 13.5c.228-2.741-6.532-.732-8-6Z"/></svg>

<?xml version="1.0" encoding="UTF-8" standalone="no"?>
<!DOCTYPE svg PUBLIC "-//W3C//DTD SVG 1.1//EN" "http://www.w3.org/Graphics/SVG/1.1/DTD/svg11.dtd">
<svg width="100%" height="100%" viewBox="0 0 24 24" version="1.1" xmlns="http://www.w3.org/2000/svg" xmlns:xlink="http://www.w3.org/1999/xlink" xml:space="preserve" xmlns:serif="http://www.serif.com/" style="fill-rule:evenodd;clip-rule:evenodd;stroke-linecap:round;stroke-linejoin:round;stroke-miterlimit:1.5;">
    <rect id="Forge" x="-0" y="0" width="24" height="24" style="fill:none;"/>
    <path d="M2,7.5L10,7.5L10,5.5L22,5.5L22,7.5C22,7.5 15,10.948 15,13.5C15,16.052 18.108,16.608 18.108,16.608L19,20.5L5,20.445L6.054,16.391C6.054,16.391 9.751,16.5 10,13.5C10.228,10.759 3.468,12.768 2,7.5Z" style="fill:none;stroke:#000;stroke-width:2px;"/>
</svg>
